src/components/converter/assets/dai.svg

<svg width="128" height="128" viewBox="0 0 128 128" fill="none" xmlns="http://www.w3.org/2000/svg">
<path d="M64 128C99.3462 128 128 99.3462 128 64C128 28.6538 99.3462 0 64 0C28.6538 0 0 28.6538 0 64C0 99.3462 28.6538 128 64 128Z" fill="url(#paint0_linear)"/>
<path d="M101.952 53.44H94.3573C90.176 41.8346 78.9333 33.8773 64.1067 33.8773H39.7227V53.44H31.2533V60.4586H39.7227V67.8186H31.2533V74.8373H39.7227V94.1653H64.1067C78.7627 94.1653 89.92 86.272 94.208 74.8373H101.952V67.8186H95.9147C96.064 66.5813 96.1493 65.3013 96.1493 64.0213V63.8506C96.1493 62.6986 96.0853 61.568 95.9787 60.4586H101.973V53.44H101.952ZM46.5493 40.128H64.1067C74.9867 40.128 83.072 45.4826 86.8053 53.4186H46.5493V40.128V40.128ZM64.1067 87.8506H46.5493V74.816H86.7627C83.008 82.624 74.944 87.8506 64.1067 87.8506ZM89.088 64.1706C89.088 65.408 89.0027 66.624 88.832 67.7973H46.5493V60.4373H88.8533C89.0027 61.5893 89.088 62.784 89.088 64V64.1706Z" fill="white"/>
<defs>
<linearGradient id="paint0_linear" x1="64" y1="-18.1333" x2="64" y2="141.44" gradientUnits="userSpaceOnUse">
<stop stop-color="#F9A606"/>
<stop offset="1" stop-color="#FBCC5F"/>
</linearGradient>
</defs>
</svg>

<svg width="128" height="128" fill="none" xmlns="http://www.w3.org/2000/svg"><path d="M64 128c35.346 0 64-28.654 64-64 0-35.346-28.654-64-64-64C28.654 0 0 28.654 0 64c0 35.346 28.654 64 64 64z" fill="url(#paint0_linear)"/><path d="M101.952 53.44h-7.595c-4.181-11.605-15.424-19.563-30.25-19.563H39.723V53.44h-8.47v7.019h8.47v7.36h-8.47v7.018h8.47v19.328h24.384c14.656 0 25.813-7.893 30.101-19.328h7.744V67.82h-6.037c.149-1.238.234-2.518.234-3.798v-.17a35.42 35.42 0 00-.17-3.392h5.994v-7.02h-.021zM46.549 40.128h17.558c10.88 0 18.965 5.355 22.698 13.29H46.55v-13.29zm17.558 47.723H46.549V74.816h40.214c-3.755 7.808-11.819 13.035-22.656 13.035zm24.981-23.68c0 1.237-.085 2.453-.256 3.626H46.549v-7.36h42.304c.15 1.152.235 2.347.235 3.563v.17z" fill="#fff"/><defs><linearGradient id="paint0_linear" x1="64" y1="-18.133" x2="64" y2="141.44" gradientUnits="userSpaceOnUse"><stop stop-color="#F9A606"/><stop offset="1" stop-color="#FBCC5F"/></linearGradient></defs></svg>
